public/topics/36.svg

<svg width="250" height="250" viewBox="0 0 250 250" fill="none" xmlns="http://www.w3.org/2000/svg">
<rect width="250" height="250" rx="30" fill="#999900"/>
<path d="M81 115C91.9333 117.4 101 122.133 108.2 129.2C115.4 136.267 119 144.467 119 153.8C119 159.4 117.667 164.867 115 170.2C110.733 178.733 104.333 185.133 95.8 189.4C87.4 193.667 77.6667 195.8 66.6 195.8C59.6667 195.8 53.4667 194.533 48 192C42.5333 189.333 37.1333 185.8 31.8 181.4C29.8 179.533 28 176.867 26.4 173.4C24.9333 169.933 24.2 167.067 24.2 164.8C24.2 161.867 25 159.533 26.6 157.8C28.3333 155.933 30.6 155 33.4 155C36.2 155 38.4 155.667 40 157C41.6 158.333 43.5333 160.467 45.8 163.4C47.9333 166.2 49.8667 168.467 51.6 170.2C53.3333 171.8 55.6667 173.2 58.6 174.4C61.5333 175.6 65.2 176.2 69.6 176.2C78.5333 176.2 85.5333 174 90.6 169.6C95.6667 165.2 98.2 159 98.2 151C98.2 147.933 96.5333 144.867 93.2 141.8C89.8667 138.6 86.7333 136.333 83.8 135C82.0667 134.067 78.8667 133.133 74.2 132.2C67.9333 130.6 63.2 129.067 60 127.6C56.9333 126 55.4 123.533 55.4 120.2C55.4 117.933 56.4 115.733 58.4 113.6C60.4 111.333 63.4 108.533 67.4 105.2C71.4 101.867 74.4 99.1333 76.4 97C78.4 94.7333 79.4 92.4667 79.4 90.2C76.8667 89.5333 73.0667 89.2 68 89.2C65.7333 89.2 62.3333 89.3333 57.8 89.6C53.8 89.8667 50.7333 90 48.6 90C43.8 90 39.6667 89.2 36.2 87.6C32.8667 86 31.2 83.9333 31.2 81.4C31.2 78.6 31.4667 76.4 32 74.8C32.5333 73.0667 33.5333 72 35 71.6C35.9333 71.2 37.6 71 40 71C46.5333 71 52.2 71.2 57 71.6C62.3333 71.8667 66.4 72 69.2 72L85.8 71.8C99.4 71.8 106.2 75.0667 106.2 81.6C106.2 86.5333 103.667 92.1333 98.6 98.4C93.6667 104.533 87.8 110.067 81 115ZM189.784 89C185.251 90.7333 181.384 93 178.184 95.8C174.984 98.4667 172.118 101.733 169.584 105.6L166.384 110.6C163.984 114.2 162.184 117.133 160.984 119.4C159.784 121.667 158.984 124.067 158.584 126.6C165.118 119.933 174.451 116.6 186.584 116.6C191.784 116.6 197.251 118.067 202.984 121C208.851 123.933 213.584 127.333 217.184 131.2C219.451 133.733 221.318 137.6 222.784 142.8C224.384 148 225.184 153.533 225.184 159.4C225.184 164.067 223.784 168.867 220.984 173.8C218.184 178.6 214.718 182.8 210.584 186.4C206.584 190 202.851 192.267 199.384 193.2C194.051 194.533 189.451 195.2 185.584 195.2C176.784 195.2 168.651 192.8 161.184 188C153.718 183.2 147.784 176.8 143.384 168.8C138.984 160.667 136.784 151.867 136.784 142.4C136.784 129.333 139.918 116.867 146.184 105C152.584 93 160.984 83.2667 171.384 75.8C173.118 74.6 176.184 73.3333 180.584 72C185.118 70.5333 189.118 69.8 192.584 69.8C199.118 69.8 202.384 72.4 202.384 77.6C202.384 80.6667 201.251 83.0667 198.984 84.8C196.851 86.5333 193.784 87.9333 189.784 89ZM181.784 176.8C184.851 176.8 187.451 176.667 189.584 176.4C191.718 176 193.651 175.267 195.384 174.2C198.051 172.333 200.384 170.133 202.384 167.6C204.518 164.933 205.584 162.4 205.584 160C205.584 150.8 203.318 144.333 198.784 140.6C194.384 136.867 189.184 134.933 183.184 134.8C180.118 134.8 176.584 135.667 172.584 137.4C168.718 139 165.384 141.133 162.584 143.8C159.918 146.467 158.584 149.067 158.584 151.6C158.584 157.333 159.784 162.133 162.184 166C164.718 169.733 167.784 172.467 171.384 174.2C174.984 175.933 178.451 176.8 181.784 176.8Z" fill="white"/>
</svg>

<svg xmlns="http://www.w3.org/2000/svg" width="250" height="250" fill="none" viewBox="0 0 250 250"><rect width="250" height="250" fill="#990" rx="30"/><path fill="#fff" d="M81 115q16.4 3.6 27.2 14.2t10.8 24.6q0 8.4-4 16.4-6.4 12.8-19.2 19.2-12.6 6.4-29.2 6.4-10.4 0-18.6-3.8-8.2-4-16.2-10.6-3-2.8-5.4-8-2.2-5.2-2.2-8.6 0-4.4 2.4-7 2.6-2.8 6.8-2.8t6.6 2 5.8 6.4q3.2 4.2 5.8 6.8 2.6 2.4 7 4.2t11 1.8q13.4 0 21-6.6t7.6-18.6q0-4.6-5-9.2-5-4.8-9.4-6.8-2.6-1.4-9.6-2.8-9.4-2.4-14.2-4.6-4.6-2.4-4.6-7.4 0-3.4 3-6.6 3-3.4 9-8.4t9-8.2q3-3.4 3-6.8-3.8-1-11.4-1-3.4 0-10.2.4-6 .4-9.2.4-7.2 0-12.4-2.4-5-2.4-5-6.2 0-4.2.8-6.6.8-2.6 3-3.2 1.4-.6 5-.6 9.8 0 17 .6 8 .4 12.2.4l16.6-.2q20.4 0 20.4 9.8 0 7.4-7.6 16.8-7.4 9.2-17.6 16.6m108.784-26q-6.8 2.6-11.6 6.8-4.8 4-8.6 9.8l-3.2 5q-3.6 5.4-5.4 8.8t-2.4 7.2q9.8-10 28-10 7.8 0 16.4 4.4 8.8 4.4 14.2 10.2 3.4 3.8 5.6 11.6 2.4 7.8 2.4 16.6 0 7-4.2 14.4-4.2 7.2-10.4 12.6-6 5.4-11.2 6.8-8 2-13.8 2-13.2 0-24.4-7.2t-17.8-19.2q-6.6-12.2-6.6-26.4 0-19.6 9.4-37.4 9.6-18 25.2-29.2 2.6-1.8 9.2-3.8 6.801-2.2 12-2.2 9.8 0 9.8 7.8 0 4.6-3.4 7.2-3.2 2.6-9.2 4.2m-8 87.8q4.6 0 7.8-.4 3.2-.6 5.8-2.2 4-2.8 7-6.6 3.2-4 3.2-7.6 0-13.8-6.8-19.4-6.6-5.6-15.6-5.8-4.6 0-10.6 2.6-5.8 2.4-10 6.4-4 4-4 7.8 0 8.6 3.6 14.4 3.8 5.6 9.2 8.2t10.4 2.6"/></svg>
